X: 11210
T: Dunse Dings A'
R: reel
M: 4/4
K: Amajor
|:cee (3fga ecA|cee (3fga-a2a|cee (3fga ecA|B=GGB =g2 ed:|
(3cBA eA fAeA|(3cBA e (3fga-a2a|(3cBA eA fAeA|B=GGB =g2 ed|
(3cBA eA fAeA|(3cBA e (3fga-a2a|(3cBA eA fAeA|B=GGB =g2 ed||

